optimized/line/exchange-cny.svg

<svg xmlns="http://www.w3.org/2000/svg" fill="currentColor" viewBox="0 0 24 24" aria-hidden="true">
  <path d="M19.379 15.106A8.001 8.001 0 008.035 5.056l-.993-1.737a9.996 9.996 0 019.962.023c4.49 2.593 6.21 8.143 4.118 12.77l1.341.775-4.165 2.214-.165-4.714 1.246.719zM4.629 8.9a8.001 8.001 0 0011.345 10.05l.992 1.737a9.996 9.996 0 01-9.962-.024c-4.49-2.593-6.21-8.142-4.117-12.77L1.545 7.12 5.71 4.905l.165 4.714-1.245-.72zm8.375 4.638h3v2h-3v2h-2v-2h-3v-2h3v-1h-3v-2h2.586L8.469 8.417l1.414-1.414 2.121 2.121 2.122-2.121 1.414 1.414-2.122 2.121h2.586v2h-3v1z"/>
</svg>

<svg xmlns="http://www.w3.org/2000/svg" viewBox="0 0 24 24" aria-hidden="true">
  <path fill="none" d="M0 0h24v24H0z"/>
  <path d="M19.375 15.103A8.001 8.001 0 008.03 5.053l-.992-1.737A9.996 9.996 0 0117 3.34c4.49 2.592 6.21 8.142 4.117 12.77l1.342.774-4.165 2.214-.165-4.714 1.246.719zM4.625 8.897a8.001 8.001 0 0011.345 10.05l.992 1.737A9.996 9.996 0 017 20.66C2.51 18.068.79 12.518 2.883 7.89L1.54 7.117l4.165-2.214.165 4.714-1.246-.719zM13 13.536h3v2h-3v2h-2v-2H8v-2h3v-1H8v-2h2.586L8.464 8.414 9.88 7 12 9.121 14.121 7l1.415 1.414-2.122 2.122H16v2h-3v1z"/>
</svg>
